X:1
T:O Hasten Thine Appearing
T:O Hasten Thine Appearing
T:Owen F. Pugh
T:James Martin Gray, 1904
T:Public Domain Courtesy of the Cyber Hymnal™
T:Public Domain Courtesy of the Cyber Hymnal™
C:Owen F. Pugh
Z:Public Domain
Z:Courtesy of the Cyber Hymnal™
%%score ( 1 2 ) ( 3 4 )
L:1/8
Q:1/4=108
M:4/4
K:Ab
V:1 treble 
V:2 treble 
V:3 bass 
V:4 bass 
V:1
 ([CE][B,D]) | [A,C]2 [B,D]2 [CE]2 [EA]2 | [Ac]4 [Ac]2 [Ac]2 | [Ac]2 [EA]2 [CE]2 [CEA]2 | G6 E2 | %5
w: 1.~O *|dear and longed- for|Sav- ior, When|wilt Thou come a-|gain? The|
w: 2.~Ten *|thou- sand hearts are|wai- ting, Ten|thou- sand fac- es|turn Up|
w: 3.~Is *|yon un- earth- ly|glo- ry, That|steals a- cross the|sky, The|
 [EBd]2 [EAc]2 [EGB]2 [EA]2 | [Ac]4 [FAc]2 [FAc]2 | [FAc]2 [=EGc]2 [FA]2"^riten." [FB]2 | %8
w: pro- mise of Thy|com- ing A-|wakes one loud “A-|
w: toward the clouds of|glo- ry, Thy|move- ments to dis-|
w: mar- shaling of Thy|myr- iads, That|tells us Thou art|
!<(! c4 !fermata![G_e]2!<)! [Ac]2 |!<(! [=Acf]2 [Ace]2 [Ad]2 [FAc]2 | [FBd]4!<)! [FBd]2 [FBd]2 | %11
w: men”! Our hearts|* so long have|wait- ed, Our|
w: cern. We heark-|* en for the|trump- et, The|
w: nigh? Our hearts|* beat high, Lord|Je- sus, And|
 [EBd]2 [EGB]2 [EG]2 E2 | e6 [Ae]2 | [GB=e]2 [GBe]2 [GBe]2 [GBe]2 | [Af]4 [Ac]2 [Ac]2 | %15
w: eyes so long have|strained! Why|tar- ry so, O|char- iot, Why|
w: great arch- an- gel’s|voice; Break|forth, O grand ho-|san- nas! Let|
w: our glad spir- its|rise; Di-|vide, ye star- ry|hea- vens, Re-|
 [Fc]2 [=EG]2 [FA]2 [=DF]2 | !fermata!E4 z2 ||"^Refrain" E2 | c6 [EA]2 | [DE]2 [DE]2 z2 E2 | %20
w: are thy wheels re-|strained?||||
w: Heav’n and earth re-|joice!|Re-|turn, Lord|Je- sus, Thy|
w: veal Him to our|eyes!||||
 [Bd]2 [Ac]2 [GB]2 [FA]2 | B6 [Ec]2 | [Af]2 [Ae]2 [Gd]2 [Ac]2 | [Ae]4 [Ae]2 [Ae]2 | %24
w: ||||
w: char- iot wheels run|slow! O|hast- en Thine ap-|pear- ing, Thy|
w: ||||
 .[Ad]2 .[Ad]2 z2 [Ad]2 | .[Ac]2 .[Ac]2 z4 | [GB]4 [GBe]4 | A6 |] %28
w: ||||
w: glo- ry, Thy|glo- ry,|glo- ry|show!|
w: ||||
V:2
 x2 | x8 | x8 | x8 | (E2 E2 E2) E2 | x8 | (E2 F2) x4 | x8 | =E2 F2 x4 | x8 | x8 | x6 E2 | %12
 (A2 A2 A2) x2 | x8 | x8 | x8 | E4 x2 || E2 | (E2 E2 E2) x2 | x6 E2 | x8 | (E2 =D2 E2) x2 | x8 | %23
 x8 | x8 | x8 | x8 | A6 |] %28
V:3
 z2 | [A,,E,A,]2 [A,,E,A,]2 [A,,E,A,]2 [A,,C,E,A,]2 | [A,,E,A,]2 [C,E,A,]2 [E,A,]2 A,2 | %3
w: |~ ~ ~ ~|~ ~ ~ ~|
 [A,,E,A,]2 [C,E,A,]2 [E,A,]2 [A,,A,]2 | ([E,B,]2 [E,,E,]2 [E,B,]2) E,2 | G,2 A,2 B,2 C2 | %6
w: ~ ~ ~ ~|~ * * ~|~ ~ ~ ~|
 A,4 [F,A,]2 [F,A,]2 | [F,,C,F,]2 [C,G,C]2 [F,A,C]2 [D,F,A,]2 | (G,2 A,2 !fermata![B,,B,]2) z2 | %9
w: ~ ~ ~|~ ~ ~ ~|~ * *|
 [F,,F,]2 [F,,F,]2 [F,,F,]2 [F,,F,]2 | [B,,B,]4 [B,,B,]2 [B,,B,]2 | G,2 B,2 E2 D2 | %12
w: ~ ~ ~ ~|~ ~ ~|~ ~ ~ ~|
 ([A,,C]2 [C,C]2 [E,C]2) [A,C]2 | [C,C]2 [=E,C]2 [G,C]2 C2 | [F,C]4 [F,A,]2 [F,A,]2 | %15
w: ~ * * ~|~ ~ ~ ~|~ ~ ~|
 [C,A,]2 [C,B,]2 [B,,B,]2 [B,,A,]2 | !fermata![E,G,]4 z2 || E,2 | [A,,A,]2 A,2 [E,A,]2 [C,A,]2 | %19
w: ~ ~ ~ ~|~|~|~ ~ re- turn,|
 [B,,G,]2 [B,,G,]2 z2 E,2 | [B,D]2 [A,C]2 [G,B,]2 [F,A,]2 | [E,G,]2 [B,,F,]2 [E,G,]2 A,2 | %22
w: ~ ~ ~|~ ~ ~ ~|~ ~ O hast-|
 [A,D]2 [E,C]2 [B,E]2 [A,E]2 | [A,C]4 [B,D]2 [CE]2 | [DF]2 [DF]2 z2 [DF]2 | %25
w: en, hast- en, ~|~ ~ ~|~ ~ ~|
 [A,E]2 [A,E]2 [CE]2 [A,C]2 | [E,E]4 [E,D]4 | [A,,A,C]6 |] %28
w: ~ ~ ~ glo-|ry, *||
V:4
 x2 | x8 | x6 A,2 | x8 | x6 E,2 | [E,,E,]4 [E,,E,]4 | (A,,2 C,2) x4 | x8 | C,4 x4 | x8 | x8 | %11
 E,4 E,4 | x8 | x6 C2 | x8 | x8 | x6 || E,2 | x2 A,2 x4 | x6 E,2 | x8 | x6 A,2 | x8 | x8 | x8 | %25
 x8 | x8 | x6 |] %28

